website/image/redstone_dust_icon__.svg

<?xml version="1.0" encoding="UTF-8"?>
<svg width="120" height="120" version="1.1" viewBox="0 0 315 475.2" xmlns="http://www.w3.org/2000/svg">
    <path id="1_" transform="matrix(3.96,0,0,3.96,-80.1,0)" d="m0 0v20h5v-15h15v-5h-20z" fill="#999"/>
    <rect id="2_" x="98.1" width="118.8" height="19.8" fill="#999" stroke-width="2.7771"/>
    <path id="3_" transform="matrix(3.96,0,0,3.96,-80.1,0)" d="m100 0v5h5 10v10 5h5v-5-15h-15-5z" fill="#999999"/>
    <g fill="#999">
        <rect id="4_" x="375.3" y="178.2" width="19.8" height="118.8" stroke-width="3.96"/>
        <path id="5_" transform="matrix(3.96,0,0,3.96,-80.1,0)" d="m115 100v15h-15v5h20v-20h-5z"/>
        <rect id="6_" x="98.1" y="455.4" width="118.8" height="19.8" stroke-width="3.6662"/>
        <path id="7_" transform="matrix(3.96,0,0,3.96,-80.1,0)" d="m0 100v20h20v-5h-15v-15h-5z"/>
        <rect id="8_" x="-80.1" y="178.2" width="19.8" height="118.8" stroke-width="3.96"/>
    </g>
    <g stroke-width="3.96">
        <path d="m149.58 89.1v15.84h15.84v-15.84zm-150.48 126.72v19.8h19.8v-19.8zm297 0v19.8h19.8v-19.8z" fill="#d60000"/>
        <path d="m149.58 124.74v19.8h15.84v-19.8zm-39.6 55.44v35.64h19.8v-35.64zm39.6 0v19.8h15.84v-19.8zm15.84 19.8v15.84h39.6v19.8h71.28v-19.8h-59.4v-15.84zm110.88 35.64v19.8h19.8v-19.8zm-71.28 0h-19.8v55.44h19.8zm-19.8 55.44h-19.8v19.8h19.8zm-19.8 19.8h-15.84v55.44h15.84zm-15.84 55.44h-19.8v19.8h19.8zm15.84-75.24v-19.8h-15.84v19.8zm-15.84-19.8v-15.84h-19.8v15.84zm0-15.84h15.84v-19.8h-15.84zm-114.84-39.6v19.8h19.8v-19.8zm55.44 19.8v35.64h19.8v-35.64zm19.8 55.44v19.8h19.8v-19.8z" fill="#fd0000"/>
        <path d="m149.58 144.54v15.84h15.84v-15.84zm15.84 15.84v39.6h19.8v-39.6zm-91.08 39.6v15.84h35.64v-15.84zm0 15.84h-19.8v19.8h19.8zm55.44-15.84v15.84h19.8v-15.84zm-19.8 35.64v35.64h19.8v-35.64zm19.8 35.64v19.8h19.8v-19.8zm87.12-35.64v19.8h23.76v-19.8zm-51.48 19.8v15.84h19.8v-15.84zm-35.64 55.44v15.84h19.8v-15.84zm0 15.84h-19.8v19.8h19.8z" fill="#af0000"/>
        <path d="m129.78 144.54v35.64h19.8v-35.64zm19.8 55.44v15.84h15.84v-15.84zm15.84 15.84v39.6h19.8v-19.8h19.8v-19.8h-19.8zm-15.84 0h-39.6v19.8h19.8v19.8h19.8v-19.8zm-95.04 19.8v19.8h35.64v-19.8z" fill="#d60000"/>
    </g>
    <animate attributeName="fill" begin="-1.5" dur="1.5s" href="#1_" repeatCount="indefinite" values="#111;#999"/>
    <animate attributeName="fill" begin="-1.3125" dur="1.5s" href="#2_" repeatCount="indefinite" values="#111;#999"/>
    <animate attributeName="fill" begin="-1.125" dur="1.5s" href="#3_" repeatCount="indefinite" values="#111;#999"/>
    <animate attributeName="fill" begin="-0.9375" dur="1.5s" href="#4_" repeatCount="indefinite" values="#111;#999"/>
    <animate attributeName="fill" begin="-0.75" dur="1.5s" href="#5_" repeatCount="indefinite" values="#111;#999"/>
    <animate attributeName="fill" begin="-0.5625" dur="1.5s" href="#6_" repeatCount="indefinite" values="#111;#999"/>
    <animate attributeName="fill" begin="-0.375" dur="1.5s" href="#7_" repeatCount="indefinite" values="#111;#999"/>
    <animate attributeName="fill" begin="-0.1875" dur="1.5s" href="#8_" repeatCount="indefinite" values="#111;#999"/>
</svg>

<?xml version="1.0" encoding="UTF-8" standalone="no"?>
<svg
     xmlns:dc="http://purl.org/dc/elements/1.1/"
     xmlns:cc="http://creativecommons.org/ns#"
     xmlns:rdf="http://www.w3.org/1999/02/22-rdf-syntax-ns#"
     xmlns:svg="http://www.w3.org/2000/svg"
     xmlns="http://www.w3.org/2000/svg"
     xmlns:sodipodi="http://sodipodi.sourceforge.net/DTD/sodipodi-0.dtd"
     xmlns:inkscape="http://www.inkscape.org/namespaces/inkscape"
     width="120"
     height="120"
     version="1.1"
     viewBox="0 0 315 475.2"
     id="svg22"
     sodipodi:docname="redstone_dust_icon__.svg"
     inkscape:version="1.0.1 (3bc2e813f5, 2020-09-07)">
    <metadata
         id="metadata28">
        <rdf:RDF>
            <cc:Work
                 rdf:about="">
                <dc:format>image/svg+xml</dc:format>
                <dc:type
                     rdf:resource="http://purl.org/dc/dcmitype/StillImage" />
            </cc:Work>
        </rdf:RDF>
    </metadata>
    <defs
         id="defs26" />
    <sodipodi:namedview
         pagecolor="#ffffff"
         bordercolor="#666666"
         borderopacity="1"
         objecttolerance="10"
         gridtolerance="10"
         guidetolerance="10"
         inkscape:pageopacity="0"
         inkscape:pageshadow="2"
         inkscape:window-width="1366"
         inkscape:window-height="705"
         id="namedview24"
         showgrid="true"
         inkscape:zoom="3.1701954"
         inkscape:cx="53.347946"
         inkscape:cy="63.365889"
         inkscape:window-x="-8"
         inkscape:window-y="-8"
         inkscape:window-maximized="1"
         inkscape:current-layer="svg22">
        <inkscape:grid
             type="xygrid"
             id="grid30" />
    </sodipodi:namedview>
    <path
         id="1_"
         transform="matrix(3.96,0,0,3.96,-80.1,0)"
         d="m0 0v5 10 5h5v-5-10h10 5v-5h-5-15z"
         fill="#999" />
    <rect
         id="2_"
         x="98.1"
         width="118.8"
         height="19.8"
         fill="#999"
         stroke-width="2.7771" />
    <path
         id="3_"
         style="fill:#999999;fill-opacity:1"
         d="M 100 0 L 100 5 L 105 5 L 115 5 L 115 15 L 115 20 L 120 20 L 120 15 L 120 0 L 105 0 L 100 0 z "
         transform="matrix(3.96,0,0,3.96,-80.1,0)" />
    <g
         fill="#999"
         id="g10">
        <rect
             id="4_"
             x="375.3"
             y="178.2"
             width="19.8"
             height="118.8"
             stroke-width="3.96" />
        <path
             id="5_"
             transform="matrix(3.96,0,0,3.96,-80.1,0)"
             d="m115 100v5 10h-10-5v5h5 15v-5-10-5h-5z" />
        <rect
             id="6_"
             x="98.1"
             y="455.4"
             width="118.8"
             height="19.8"
             stroke-width="3.6662" />
        <path
             id="7_"
             transform="matrix(3.96,0,0,3.96,-80.1,0)"
             d="m0 100v5 10 5h15 5v-5h-5-10v-10-5h-5z" />
        <rect
             id="8_"
             x="-80.1"
             y="178.2"
             width="19.8"
             height="118.8"
             stroke-width="3.96" />
    </g>
    <g
         stroke-width="3.96"
         id="g20">
        <path
             d="m149.58 89.1v15.84h15.84v-15.84zm-150.48 126.72v19.8h19.8v-19.8zm297 0v19.8h19.8v-19.8z"
             fill="#d60000"
             id="path12" />
        <path
             d="m149.58 124.74v19.8h15.84v-19.8zm-39.6 55.44v35.64h19.8v-35.64zm39.6 0v19.8h15.84v-19.8zm15.84 19.8v15.84h39.6v19.8h71.28v-19.8h-59.4v-15.84zm110.88 35.64v19.8h19.8v-19.8zm-71.28 0h-19.8v55.44h19.8zm-19.8 55.44h-19.8v19.8h19.8zm-19.8 19.8h-15.84v55.44h15.84zm-15.84 55.44h-19.8v19.8h19.8zm15.84-75.24v-19.8h-15.84v19.8zm-15.84-19.8v-15.84h-19.8v15.84zm0-15.84h15.84v-19.8h-15.84zm-114.84-39.6v19.8h19.8v-19.8zm55.44 19.8v35.64h19.8v-35.64zm19.8 55.44v19.8h19.8v-19.8z"
             fill="#fd0000"
             id="path14" />
        <path
             d="m149.58 144.54v15.84h15.84v-15.84zm15.84 15.84v39.6h19.8v-39.6zm-91.08 39.6v15.84h35.64v-15.84zm0 15.84h-19.8v19.8h19.8zm55.44-15.84v15.84h19.8v-15.84zm-19.8 35.64v35.64h19.8v-35.64zm19.8 35.64v19.8h19.8v-19.8zm87.12-35.64v19.8h23.76v-19.8zm-51.48 19.8v15.84h19.8v-15.84zm-35.64 55.44v15.84h19.8v-15.84zm0 15.84h-19.8v19.8h19.8z"
             fill="#af0000"
             id="path16" />
        <path
             d="m129.78 144.54v35.64h19.8v-35.64zm19.8 55.44v15.84h15.84v-15.84zm15.84 15.84v39.6h19.8v-19.8h19.8v-19.8h-19.8zm-15.84 0h-39.6v19.8h19.8v19.8h19.8v-19.8zm-95.04 19.8v19.8h35.64v-19.8z"
             fill="#d60000"
             id="path18" />
    </g>
    <animate
         href="#1_"
         attributeName="fill"
         dur="1.5s"
         values="#111;#999"
         begin="-1.5"
         repeatCount="indefinite" />
    <animate
         href="#2_"
         attributeName="fill"
         dur="1.5s"
         values="#111;#999"
         begin="-1.3125"
         repeatCount="indefinite" />
    <animate
         href="#3_"
         attributeName="fill"
         dur="1.5s"
         values="#111;#999"
         begin="-1.125"
         repeatCount="indefinite" />
    <animate
         href="#4_"
         attributeName="fill"
         dur="1.5s"
         values="#111;#999"
         begin="-0.9375"
         repeatCount="indefinite" />
    <animate
         href="#5_"
         attributeName="fill"
         dur="1.5s"
         values="#111;#999"
         begin="-0.75"
         repeatCount="indefinite" />
    <animate
         href="#6_"
         attributeName="fill"
         dur="1.5s"
         values="#111;#999"
         begin="-0.5625"
         repeatCount="indefinite" />
    <animate
         href="#7_"
         attributeName="fill"
         dur="1.5s"
         values="#111;#999"
         begin="-0.375"
         repeatCount="indefinite" />
    <animate
         href="#8_"
         attributeName="fill"
         dur="1.5s"
         values="#111;#999"
         begin="-0.1875"
         repeatCount="indefinite" />
</svg>
